X:1
T:Title
%%score { ( 1 4 ) | ( 2 3 ) }
L:1/8
Q:1/4=100
M:3/4
K:Eb
V:1 treble nm="Grand Piano"
V:4 treble 
V:2 bass 
V:3 bass 
V:1
 [B,EG]2 [CFA]2 [A,DF]2 | [G,E]4 [B,EG]>[B,EA] | [B,EB]2 [EGB]2 .[CAc]2 | [Ac]2 [GB]4 | %4
w: Samuel~Webbe * *||||
 [Ge]2 [Ge]2 [Fd]2 | [Ec]2 [Ac]2 [GB]2 | [FB]2 [FA]2 [EG]2 | [EG]2 [DF]4 | [DF]2 [FB]2 c2 | %9
w: |||||
 d4 B>B | e2 z2 z2 | c2 [B,DB]4 | [CFA]2 [B,FA]2 [B,EG]2 | [G,DG]2 [G,=B,F]2 [G,CE]2 | %14
w: |||||
 [CE]2 [B,EG]2 [A,DF]2 |[M:7/4][K:bass] [G,E]6 z2 z2 z4 |[M:3/4] [A,CE]6 | [E,G,B,E]6 |] %18
w: ||||
V:2
 E,2 A,,2 B,,2 | E,4 E,>F, | G,2 E,2 z D | [E,E]2 [E,E]4 | [E,B,]2 [C,C]2 [G,=B,]2 | %5
 [A,C]2 [F,D]2 [G,E]2 | [D,B,]2 [D,B,]2 [E,B,]2 | [B,,B,]6 | [B,,B,]2 [D,B,]2[K:treble] [F,=A,F]2 | %9
 [B,F]4 [A,B,D]>[A,B,D] | .[G,B,E]2[K:bass] [E,B,E]2 [F,E]2 | [F,=A,E]2 B,,4 | F,2 D,2 E,2 | %13
 =B,,2 G,,2 C,2 | z z/ F/ B,,2 B,,2 |[M:7/4] E,6 z2 z2 z4 |[M:3/4] A,,6 | E,,6 |] %18
V:3
 x6 | x6 | z2 z2 A,2 | x6 | x6 | x6 | x6 | x6 | x4[K:treble] x2 | x6 | x2[K:bass] x4 | x6 | x6 | %13
 x6 | A,,2 z2 z2 |[M:7/4] x14 |[M:3/4] x6 | x6 |] %18
V:4
 x6 | x6 | x6 | x6 | x6 | x6 | x6 | x6 | x6 | x6 | z F, G2 =A2 | x6 | x6 | x6 | x6 | %15
[M:7/4][K:bass] x14 |[M:3/4] x6 | x6 |] %18

